X:1
T: Kincaldrum's Reel
C:
R:Reel
Q: 232
K:G
M:4/4
L:1/8
|:d|g2 dc B2 AG|FG AB cA Af|gd ec B2 AG|DF Ac BG Gd|
g2 dc B2 AG|FG AB cA Af|gd ec B2 AG|DF Ac BG GB|
DG BG AG BG|DG BG cA Ac|Bd ef ge dc|Bd Ac BG GB|
DG BG AG BG|DG BG cA Ac|Bd ef ge dc|Bd Ac BG G:|
